static/img/kroki/e9137f95204ddf53ecd157ea184ea3ff.svg

<?xml version="1.0" encoding="us-ascii" standalone="no"?><svg xmlns="http://www.w3.org/2000/svg" xmlns:xlink="http://www.w3.org/1999/xlink" contentStyleType="text/css" height="352px" preserveAspectRatio="none" style="width:665px;height:352px;" version="1.1" viewBox="0 0 665 352" width="665px" zoomAndPan="magnify"><defs/><g><!--class aws_ec2_security_group--><g id="elem_aws_ec2_security_group"><rect codeLine="22" fill="#3D176E" height="39.7891" id="aws_ec2_security_group" rx="2.5" ry="2.5" style="stroke:#000D19;stroke-width:0.5;" width="245" x="7" y="7"/><ellipse cx="22" cy="26.8945" fill="#ADD1B2" rx="11" ry="11" style="stroke:#181818;stroke-width:1.0;"/><path d="M24.9688,32.5352 Q24.3906,32.832 23.75,32.9727 Q23.1094,33.1289 22.4063,33.1289 Q19.9063,33.1289 18.5781,31.4883 Q17.2656,29.832 17.2656,26.707 Q17.2656,23.582 18.5781,21.9258 Q19.9063,20.2695 22.4063,20.2695 Q23.1094,20.2695 23.75,20.4258 Q24.4063,20.582 24.9688,20.8789 L24.9688,23.5977 Q24.3438,23.0195 23.75,22.7539 Q23.1563,22.4727 22.5313,22.4727 Q21.1875,22.4727 20.5,23.5508 Q19.8125,24.6133 19.8125,26.707 Q19.8125,28.8008 20.5,29.8789 Q21.1875,30.9414 22.5313,30.9414 Q23.1563,30.9414 23.75,30.6758 Q24.3438,30.3945 24.9688,29.8164 L24.9688,32.5352 Z " fill="#000000"/><text fill="#D9B8FF" font-family="Helvetica" font-size="17" lengthAdjust="spacing" textLength="203" x="41" y="32.7798">aws_ec2_security_group</text></g><!--class aws_ec2_subnet--><g id="elem_aws_ec2_subnet"><rect codeLine="24" fill="#3D176E" height="39.7891" id="aws_ec2_subnet" rx="2.5" ry="2.5" style="stroke:#000D19;stroke-width:0.5;" width="179" x="287" y="7"/><ellipse cx="302" cy="26.8945" fill="#ADD1B2" rx="11" ry="11" style="stroke:#181818;stroke-width:1.0;"/><path d="M304.9688,32.5352 Q304.3906,32.832 303.75,32.9727 Q303.1094,33.1289 302.4063,33.1289 Q299.9063,33.1289 298.5781,31.4883 Q297.2656,29.832 297.2656,26.707 Q297.2656,23.582 298.5781,21.9258 Q299.9063,20.2695 302.4063,20.2695 Q303.1094,20.2695 303.75,20.4258 Q304.4063,20.582 304.9688,20.8789 L304.9688,23.5977 Q304.3438,23.0195 303.75,22.7539 Q303.1563,22.4727 302.5313,22.4727 Q301.1875,22.4727 300.5,23.5508 Q299.8125,24.6133 299.8125,26.707 Q299.8125,28.8008 300.5,29.8789 Q301.1875,30.9414 302.5313,30.9414 Q303.1563,30.9414 303.75,30.6758 Q304.3438,30.3945 304.9688,29.8164 L304.9688,32.5352 Z " fill="#000000"/><text fill="#D9B8FF" font-family="Helvetica" font-size="17" lengthAdjust="spacing" textLength="137" x="321" y="32.7798">aws_ec2_subnet</text></g><!--class aws_iam_role--><g id="elem_aws_iam_role"><rect codeLine="26" fill="#3D176E" height="39.7891" id="aws_iam_role" rx="2.5" ry="2.5" style="stroke:#000D19;stroke-width:0.5;" width="157" x="501" y="7"/><ellipse cx="516" cy="26.8945" fill="#ADD1B2" rx="11" ry="11" style="stroke:#181818;stroke-width:1.0;"/><path d="M518.9688,32.5352 Q518.3906,32.832 517.75,32.9727 Q517.1094,33.1289 516.4063,33.1289 Q513.9063,33.1289 512.5781,31.4883 Q511.2656,29.832 511.2656,26.707 Q511.2656,23.582 512.5781,21.9258 Q513.9063,20.2695 516.4063,20.2695 Q517.1094,20.2695 517.75,20.4258 Q518.4063,20.582 518.9688,20.8789 L518.9688,23.5977 Q518.3438,23.0195 517.75,22.7539 Q517.1563,22.4727 516.5313,22.4727 Q515.1875,22.4727 514.5,23.5508 Q513.8125,24.6133 513.8125,26.707 Q513.8125,28.8008 514.5,29.8789 Q515.1875,30.9414 516.5313,30.9414 Q517.1563,30.9414 517.75,30.6758 Q518.3438,30.3945 518.9688,29.8164 L518.9688,32.5352 Z " fill="#000000"/><text fill="#D9B8FF" font-family="Helvetica" font-size="17" lengthAdjust="spacing" textLength="115" x="535" y="32.7798">aws_iam_role</text></g><!--class aws_kms_key--><g id="elem_aws_kms_key"><rect codeLine="28" fill="#3D176E" height="39.7891" id="aws_kms_key" rx="2.5" ry="2.5" style="stroke:#000D19;stroke-width:0.5;" width="158" x="198.5" y="306.37"/><ellipse cx="213.5" cy="326.2645" fill="#ADD1B2" rx="11" ry="11" style="stroke:#181818;stroke-width:1.0;"/><path d="M216.4688,331.9052 Q215.8906,332.202 215.25,332.3427 Q214.6094,332.4989 213.9063,332.4989 Q211.4063,332.4989 210.0781,330.8583 Q208.7656,329.202 208.7656,326.077 Q208.7656,322.952 210.0781,321.2958 Q211.4063,319.6395 213.9063,319.6395 Q214.6094,319.6395 215.25,319.7958 Q215.9063,319.952 216.4688,320.2489 L216.4688,322.9677 Q215.8438,322.3895 215.25,322.1239 Q214.6563,321.8427 214.0313,321.8427 Q212.6875,321.8427 212,322.9208 Q211.3125,323.9833 211.3125,326.077 Q211.3125,328.1708 212,329.2489 Q212.6875,330.3114 214.0313,330.3114 Q214.6563,330.3114 215.25,330.0458 Q215.8438,329.7645 216.4688,329.1864 L216.4688,331.9052 Z " fill="#000000"/><text fill="#D9B8FF" font-family="Helvetica" font-size="17" lengthAdjust="spacing" textLength="116" x="232.5" y="332.1498">aws_kms_key</text></g><!--class aws_s3_bucket--><g id="elem_aws_s3_bucket"><rect codeLine="30" fill="#3D176E" height="39.7891" id="aws_s3_bucket" rx="2.5" ry="2.5" style="stroke:#000D19;stroke-width:0.5;" width="168" x="432.5" y="306.37"/><ellipse cx="447.5" cy="326.2645" fill="#ADD1B2" rx="11" ry="11" style="stroke:#181818;stroke-width:1.0;"/><path d="M450.4688,331.9052 Q449.8906,332.202 449.25,332.3427 Q448.6094,332.4989 447.9063,332.4989 Q445.4063,332.4989 444.0781,330.8583 Q442.7656,329.202 442.7656,326.077 Q442.7656,322.952 444.0781,321.2958 Q445.4063,319.6395 447.9063,319.6395 Q448.6094,319.6395 449.25,319.7958 Q449.9063,319.952 450.4688,320.2489 L450.4688,322.9677 Q449.8438,322.3895 449.25,322.1239 Q448.6563,321.8427 448.0313,321.8427 Q446.6875,321.8427 446,322.9208 Q445.3125,323.9833 445.3125,326.077 Q445.3125,328.1708 446,329.2489 Q446.6875,330.3114 448.0313,330.3114 Q448.6563,330.3114 449.25,330.0458 Q449.8438,329.7645 450.4688,329.1864 L450.4688,331.9052 Z " fill="#000000"/><text fill="#D9B8FF" font-family="Helvetica" font-size="17" lengthAdjust="spacing" textLength="126" x="466.5" y="332.1498">aws_s3_bucket</text></g><!--class aws_sagemaker_endpoint--><g id="elem_aws_sagemaker_endpoint"><rect codeLine="32" fill="#3D176E" height="39.7891" id="aws_sagemaker_endpoint" rx="2.5" ry="2.5" style="stroke:#000D19;stroke-width:0.5;" width="259" x="247" y="206.58"/><ellipse cx="262" cy="226.4745" fill="#ADD1B2" rx="11" ry="11" style="stroke:#181818;stroke-width:1.0;"/><path d="M264.9688,232.1152 Q264.3906,232.412 263.75,232.5527 Q263.1094,232.7089 262.4063,232.7089 Q259.9063,232.7089 258.5781,231.0683 Q257.2656,229.412 257.2656,226.287 Q257.2656,223.162 258.5781,221.5058 Q259.9063,219.8495 262.4063,219.8495 Q263.1094,219.8495 263.75,220.0058 Q264.4063,220.162 264.9688,220.4589 L264.9688,223.1777 Q264.3438,222.5995 263.75,222.3339 Q263.1563,222.0527 262.5313,222.0527 Q261.1875,222.0527 260.5,223.1308 Q259.8125,224.1933 259.8125,226.287 Q259.8125,228.3808 260.5,229.4589 Q261.1875,230.5214 262.5313,230.5214 Q263.1563,230.5214 263.75,230.2558 Q264.3438,229.9745 264.9688,229.3964 L264.9688,232.1152 Z " fill="#000000"/><text fill="#D9B8FF" font-family="Helvetica" font-size="17" lengthAdjust="spacing" textLength="217" x="281" y="232.3598">aws_sagemaker_endpoint</text></g><!--class aws_sagemaker_inference_recommendations_job--><g id="elem_aws_sagemaker_inference_recommendations_job"><rect codeLine="34" fill="#3D176E" height="39.7891" id="aws_sagemaker_inference_recommendations_job" rx="2.5" ry="2.5" style="stroke:#000D19;stroke-width:0.5;" width="457" x="148" y="106.79"/><ellipse cx="163" cy="126.6845" fill="#ADD1B2" rx="11" ry="11" style="stroke:#181818;stroke-width:1.0;"/><path d="M165.9688,132.3252 Q165.3906,132.622 164.75,132.7627 Q164.1094,132.9189 163.4063,132.9189 Q160.9063,132.9189 159.5781,131.2783 Q158.2656,129.622 158.2656,126.497 Q158.2656,123.372 159.5781,121.7158 Q160.9063,120.0595 163.4063,120.0595 Q164.1094,120.0595 164.75,120.2158 Q165.4063,120.372 165.9688,120.6689 L165.9688,123.3877 Q165.3438,122.8095 164.75,122.5439 Q164.1563,122.2627 163.5313,122.2627 Q162.1875,122.2627 161.5,123.3408 Q160.8125,124.4033 160.8125,126.497 Q160.8125,128.5908 161.5,129.6689 Q162.1875,130.7314 163.5313,130.7314 Q164.1563,130.7314 164.75,130.4658 Q165.3438,130.1845 165.9688,129.6064 L165.9688,132.3252 Z " fill="#000000"/><text fill="#D9B8FF" font-family="Helvetica" font-size="17" lengthAdjust="spacing" textLength="415" x="182" y="132.5698">aws_sagemaker_inference_recommendations_job</text></g><!--link aws_ec2_security_group to aws_sagemaker_inference_recommendations_job--><g id="link_aws_ec2_security_group_aws_sagemaker_inference_recommendations_job"><path codeLine="36" d="M178.3,47.22 C219.83,63.66 279.4,87.25 322.38,104.26 " fill="none" id="aws_ec2_security_group-to-aws_sagemaker_inference_recommendations_job" style="stroke:#1A83AF;stroke-width:2.0;"/><polygon fill="#1A83AF" points="326.8,106.41,319.9106,99.3718,322.1527,104.5654,316.9592,106.8075,326.8,106.41" style="stroke:#1A83AF;stroke-width:2.0;"/></g><!--link aws_ec2_subnet to aws_sagemaker_inference_recommendations_job--><g id="link_aws_ec2_subnet_aws_sagemaker_inference_recommendations_job"><path codeLine="37" d="M376.5,47.22 C376.5,62.49 376.5,83.92 376.5,100.53 " fill="none" id="aws_ec2_subnet-to-aws_sagemaker_inference_recommendations_job" style="stroke:#1A83AF;stroke-width:2.0;"/><polygon fill="#1A83AF" points="376.5,105.41,380.5,96.41,376.5,100.41,372.5,96.41,376.5,105.41" style="stroke:#1A83AF;stroke-width:2.0;"/></g><!--link aws_iam_role to aws_sagemaker_inference_recommendations_job--><g id="link_aws_iam_role_aws_sagemaker_inference_recommendations_job"><path codeLine="38" d="M539.39,47.22 C505.47,63.56 456.9,86.96 421.63,103.95 " fill="none" id="aws_iam_role-to-aws_sagemaker_inference_recommendations_job" style="stroke:#1A83AF;stroke-width:2.0;"/><polygon fill="#1A83AF" points="417.52,106.41,427.364,106.1012,422.0231,104.2371,423.8873,98.8962,417.52,106.41" style="stroke:#1A83AF;stroke-width:2.0;"/></g><!--link aws_sagemaker_endpoint to aws_kms_key--><g id="link_aws_sagemaker_endpoint_aws_kms_key"><path codeLine="39" d="M356.94,246.8 C340.94,262.6 318.26,285.01 301.22,301.84 " fill="none" id="aws_sagemaker_endpoint-to-aws_kms_key" style="stroke:#1A83AF;stroke-width:2.0;"/><polygon fill="#1A83AF" points="298.02,304.99,307.2336,301.5102,301.5769,301.476,301.6112,295.8192,298.02,304.99" style="stroke:#1A83AF;stroke-width:2.0;"/></g><!--link aws_sagemaker_endpoint to aws_s3_bucket--><g id="link_aws_sagemaker_endpoint_aws_s3_bucket"><path codeLine="40" d="M404.16,246.8 C427.17,262.87 459.96,285.77 484.17,302.69 " fill="none" id="aws_sagemaker_endpoint-to-aws_s3_bucket" style="stroke:#1A83AF;stroke-width:2.0;"/><polygon fill="#1A83AF" points="487.9,305.99,482.803,297.5626,483.7978,303.1313,478.2291,304.1261,487.9,305.99" style="stroke:#1A83AF;stroke-width:2.0;"/></g><!--link aws_sagemaker_inference_recommendations_job to aws_kms_key--><g id="link_aws_sagemaker_inference_recommendations_job_aws_kms_key"><path codeLine="41" d="M307.79,146.95 C278.27,159.01 246.67,177.87 229.5,206.58 C211.02,237.47 235.12,276.76 255.33,301.47 " fill="none" id="aws_sagemaker_inference_recommendations_job-to-aws_kms_key" style="stroke:#1A83AF;stroke-width:2.0;"/><polygon fill="#1A83AF" points="259.05,304.91,256.3473,295.4392,255.8434,301.0736,250.2091,300.5697,259.05,304.91" style="stroke:#1A83AF;stroke-width:2.0;"/></g><!--link aws_sagemaker_inference_recommendations_job to aws_s3_bucket--><g id="link_aws_sagemaker_inference_recommendations_job_aws_s3_bucket"><path codeLine="42" d="M445.21,146.95 C474.73,159.01 506.33,177.87 523.5,206.58 C540.64,235.24 533.32,275.07 525.62,300.51 " fill="none" id="aws_sagemaker_inference_recommendations_job-to-aws_s3_bucket" style="stroke:#1A83AF;stroke-width:2.0;"/><polygon fill="#1A83AF" points="523.87,305.02,530.385,297.6339,525.3695,300.2501,522.7532,295.2347,523.87,305.02" style="stroke:#1A83AF;stroke-width:2.0;"/></g><!--link aws_sagemaker_inference_recommendations_job to aws_sagemaker_endpoint--><g id="link_aws_sagemaker_inference_recommendations_job_aws_sagemaker_endpoint"><path codeLine="43" d="M376.5,147.01 C376.5,162.28 376.5,183.71 376.5,200.32 " fill="none" id="aws_sagemaker_inference_recommendations_job-to-aws_sagemaker_endpoint" style="stroke:#1A83AF;stroke-width:2.0;"/><polygon fill="#1A83AF" points="376.5,205.2,380.5,196.2,376.5,200.2,372.5,196.2,376.5,205.2" style="stroke:#1A83AF;stroke-width:2.0;"/></g><!--SRC=[hP7DRi8m48JlUGfBd948KGjSAgL8gBsWglHMLP5ZRy1DR4ThfoYj-kvDWABK8Vo87dpP_JmxixiI70Z8t9P4Wem1ZMTIeNAAL98GKQ-dEjD8Uab2as3aDcTQsPF0d4eW3v1zW1MCkiJBIh1KWJ5as6ZTKvOkKHUAR-KjKcMg5YZReAOPDIQq5aLSM6YOuPDud2GkwOhs0kwFRg65QUI0EsGm671_uY8dHntDlISMuXE8trpQN5jesMoDs517NTP4msGhw6-_q-CJvLoe9Rbfr9wtdb01_galLfJhTKqdD3FDCSO2WhPb3jDMAfYCUJ8w23zsmQpU7A5h4m4RHWPOWSAMKOtcvClxTe4YLc2TXg0oGfs1KqvbzQ1qgYQ8ueAbBH53bo1f2XY1uhaMgXiGAgboAGOH0jDILX-e5LgPw5t7cryTUVglFJyS1-7ihNztYQRdnBzAPx-jgrGEhAkbjpl0sVp-DDub-pvpx8KY_-Ib7Vi7]--></g></svg>

<svg xmlns="http://www.w3.org/2000/svg" width="665" height="352" preserveAspectRatio="none" style="width:665px;height:352px"><rect width="245" height="39.789" x="7" y="7" fill="#3D176E" rx="2.5" ry="2.5" style="stroke:#000d19;stroke-width:.5"/><circle cx="22" cy="26.895" r="11" fill="#ADD1B2" style="stroke:#181818;stroke-width:1"/><path d="M24.969 32.535q-.578.297-1.219.438-.64.156-1.344.156-2.5 0-3.828-1.64-1.312-1.657-1.312-4.782t1.312-4.781q1.328-1.656 3.828-1.656.703 0 1.344.156.656.156 1.219.453v2.719q-.625-.578-1.219-.844-.594-.281-1.219-.281-1.343 0-2.031 1.078-.688 1.062-.688 3.156 0 2.094.688 3.172.688 1.062 2.031 1.062.625 0 1.219-.265.594-.281 1.219-.86v2.72Z"/><text x="41" y="32.78" fill="#D9B8FF" font-family="Helvetica" font-size="17" textLength="203">aws_ec2_security_group</text><rect width="179" height="39.789" x="287" y="7" fill="#3D176E" rx="2.5" ry="2.5" style="stroke:#000d19;stroke-width:.5"/><circle cx="302" cy="26.895" r="11" fill="#ADD1B2" style="stroke:#181818;stroke-width:1"/><path d="M304.969 32.535q-.578.297-1.219.438-.64.156-1.344.156-2.5 0-3.828-1.64-1.312-1.657-1.312-4.782t1.312-4.781q1.328-1.656 3.828-1.656.703 0 1.344.156.656.156 1.219.453v2.719q-.625-.578-1.219-.844-.594-.281-1.219-.281-1.344 0-2.031 1.078-.688 1.062-.688 3.156 0 2.094.688 3.172.688 1.062 2.031 1.062.625 0 1.219-.265.594-.281 1.219-.86v2.72Z"/><text x="321" y="32.78" fill="#D9B8FF" font-family="Helvetica" font-size="17" textLength="137">aws_ec2_subnet</text><rect width="157" height="39.789" x="501" y="7" fill="#3D176E" rx="2.5" ry="2.5" style="stroke:#000d19;stroke-width:.5"/><circle cx="516" cy="26.895" r="11" fill="#ADD1B2" style="stroke:#181818;stroke-width:1"/><path d="M518.969 32.535q-.578.297-1.219.438-.64.156-1.344.156-2.5 0-3.828-1.64-1.312-1.657-1.312-4.782t1.312-4.781q1.328-1.656 3.828-1.656.703 0 1.344.156.656.156 1.219.453v2.719q-.625-.578-1.219-.844-.594-.281-1.219-.281-1.343 0-2.031 1.078-.688 1.062-.688 3.156 0 2.094.688 3.172.688 1.062 2.031 1.062.625 0 1.219-.265.594-.281 1.219-.86v2.72Z"/><text x="535" y="32.78" fill="#D9B8FF" font-family="Helvetica" font-size="17" textLength="115">aws_iam_role</text><rect width="158" height="39.789" x="198.5" y="306.37" fill="#3D176E" rx="2.5" ry="2.5" style="stroke:#000d19;stroke-width:.5"/><circle cx="213.5" cy="326.264" r="11" fill="#ADD1B2" style="stroke:#181818;stroke-width:1"/><path d="M216.469 331.905q-.578.297-1.219.438-.64.156-1.344.156-2.5 0-3.828-1.64-1.312-1.657-1.312-4.782t1.312-4.781q1.328-1.656 3.828-1.656.703 0 1.344.156.656.156 1.219.453v2.719q-.625-.579-1.219-.844-.594-.281-1.219-.281-1.344 0-2.031 1.078-.688 1.062-.688 3.156 0 2.094.688 3.172.688 1.062 2.031 1.062.625 0 1.219-.265.594-.281 1.219-.86v2.72Z"/><text x="232.5" y="332.15" fill="#D9B8FF" font-family="Helvetica" font-size="17" textLength="116">aws_kms_key</text><rect width="168" height="39.789" x="432.5" y="306.37" fill="#3D176E" rx="2.5" ry="2.5" style="stroke:#000d19;stroke-width:.5"/><circle cx="447.5" cy="326.264" r="11" fill="#ADD1B2" style="stroke:#181818;stroke-width:1"/><path d="M450.469 331.905q-.578.297-1.219.438-.64.156-1.344.156-2.5 0-3.828-1.64-1.312-1.657-1.312-4.782t1.312-4.781q1.328-1.656 3.828-1.656.703 0 1.344.156.656.156 1.219.453v2.719q-.625-.579-1.219-.844-.594-.281-1.219-.281-1.344 0-2.031 1.078-.688 1.062-.688 3.156 0 2.094.688 3.172.688 1.062 2.031 1.062.625 0 1.219-.265.594-.281 1.219-.86v2.72Z"/><text x="466.5" y="332.15" fill="#D9B8FF" font-family="Helvetica" font-size="17" textLength="126">aws_s3_bucket</text><rect width="259" height="39.789" x="247" y="206.58" fill="#3D176E" rx="2.5" ry="2.5" style="stroke:#000d19;stroke-width:.5"/><circle cx="262" cy="226.475" r="11" fill="#ADD1B2" style="stroke:#181818;stroke-width:1"/><path d="M264.969 232.115q-.578.297-1.219.438-.64.156-1.344.156-2.5 0-3.828-1.64-1.312-1.657-1.312-4.782t1.312-4.781q1.328-1.656 3.828-1.656.703 0 1.344.156.656.156 1.219.453v2.719q-.625-.578-1.219-.844-.594-.281-1.219-.281-1.344 0-2.031 1.078-.688 1.062-.688 3.156 0 2.094.688 3.172.688 1.062 2.031 1.062.625 0 1.219-.265.594-.281 1.219-.86v2.72Z"/><text x="281" y="232.36" fill="#D9B8FF" font-family="Helvetica" font-size="17" textLength="217">aws_sagemaker_endpoint</text><rect width="457" height="39.789" x="148" y="106.79" fill="#3D176E" rx="2.5" ry="2.5" style="stroke:#000d19;stroke-width:.5"/><circle cx="163" cy="126.684" r="11" fill="#ADD1B2" style="stroke:#181818;stroke-width:1"/><path d="M165.969 132.325q-.578.297-1.219.438-.64.156-1.344.156-2.5 0-3.828-1.64-1.312-1.657-1.312-4.782t1.312-4.781q1.328-1.656 3.828-1.656.703 0 1.344.156.656.156 1.219.453v2.719q-.625-.579-1.219-.844-.594-.281-1.219-.281-1.344 0-2.031 1.078-.688 1.062-.688 3.156 0 2.094.688 3.172.688 1.062 2.031 1.062.625 0 1.219-.265.594-.281 1.219-.86v2.72Z"/><text x="182" y="132.57" fill="#D9B8FF" font-family="Helvetica" font-size="17" textLength="415">aws_sagemaker_inference_recommendations_job</text><path fill="none" d="M178.3 47.22c41.53 16.44 101.1 40.03 144.08 57.04" style="stroke:#1a83af;stroke-width:2"/><path fill="#1A83AF" d="m326.8 106.41-6.89-7.038 2.243 5.193-5.194 2.243 9.841-.398z" style="stroke:#1a83af;stroke-width:2"/><path fill="none" d="M376.5 47.22v53.31" style="stroke:#1a83af;stroke-width:2"/><path fill="#1A83AF" d="m376.5 105.41 4-9-4 4-4-4 4 9z" style="stroke:#1a83af;stroke-width:2"/><path fill="none" d="m539.39 47.22-117.76 56.73" style="stroke:#1a83af;stroke-width:2"/><path fill="#1A83AF" d="m417.52 106.41 9.844-.309-5.34-1.864 1.863-5.34-6.367 7.513z" style="stroke:#1a83af;stroke-width:2"/><path fill="none" d="M356.94 246.8c-16 15.8-38.68 38.21-55.72 55.04" style="stroke:#1a83af;stroke-width:2"/><path fill="#1A83AF" d="m298.02 304.99 9.214-3.48-5.657-.034.034-5.657-3.591 9.171z" style="stroke:#1a83af;stroke-width:2"/><path fill="none" d="M404.16 246.8c23.01 16.07 55.8 38.97 80.01 55.89" style="stroke:#1a83af;stroke-width:2"/><path fill="#1A83AF" d="m487.9 305.99-5.097-8.427.995 5.568-5.569.995 9.671 1.864z" style="stroke:#1a83af;stroke-width:2"/><path fill="none" d="M307.79 146.95c-29.52 12.06-61.12 30.92-78.29 59.63-18.48 30.89 5.62 70.18 25.83 94.89" style="stroke:#1a83af;stroke-width:2"/><path fill="#1A83AF" d="m259.05 304.91-2.703-9.47-.504 5.634-5.634-.504 8.841 4.34z" style="stroke:#1a83af;stroke-width:2"/><path fill="none" d="M445.21 146.95c29.52 12.06 61.12 30.92 78.29 59.63 17.14 28.66 9.82 68.49 2.12 93.93" style="stroke:#1a83af;stroke-width:2"/><path fill="#1A83AF" d="m523.87 305.02 6.515-7.386-5.015 2.616-2.617-5.015 1.117 9.785z" style="stroke:#1a83af;stroke-width:2"/><path fill="none" d="M376.5 147.01v53.31" style="stroke:#1a83af;stroke-width:2"/><path fill="#1A83AF" d="m376.5 205.2 4-9-4 4-4-4 4 9z" style="stroke:#1a83af;stroke-width:2"/></svg>
